X:180
T:Paddy Carey TS.180
M:6/8
L:1/8
Q:3/8=120
S:Thomas Sands’ MS,1810,Lincolnshire
R:jig
O:England;Lincolnshire
Z:vmp.Ruairidh Greig, 2011
K:C
G”rpt.sign added”|:G2c cBc|e2c cBc|A2dd2e|f2d BG2|
G2c cBc|e2c cBc|BAG GAB|cde d2c:|
|:c2ef2a|g2a gec|c2ef2a|gecd3|
c2ef2a|g2a gec|cBA GAB|cde d2c:|
|:f2d dcd|e2c cBc|B2cd2e|f2d B2G|
f2d dcd|e2c cBc|BAG GAB|cded2c:|
|:c2cc2a|g2a gec|c2cc2a|gec d3|
c2cc2a|g2a gec|cBA GAB|cded2c:|]

